X: 175
T: SLIDE: Brosna No. 3
T: Cnoc na gClárac
C: C: Trad.; S: Various
C: Set Leaders: Sophie, Anton
Z: [Unedited]; ceolachan at The Session
N: https://thesession.org/members/26966/sets/99585
R: Slide
M: 12/8
L: 1/8
Q: 3/8=116
K: Amix
GBd|:e3 efe d2 f e2 d|c2 A ABA a3 a2 g|
e3 efe d3 e2 d|c2 A B2 G A3 ABd:||
e2 a a2 g e2 d Bcd|e2 a a2 g e2 g d2 g|
e2 a a2 g e2 d B2 d|eed e2 f g3 f2 g|
e2 a a2 g eed B2 d|e2 a a2 g e3 d3|
e3 a2 g e2 f g2 f|eed e2 f g2 a f2 g||

